X:354
T:Miss Homes Favourite. RH.354
R:jig
S:Rev.R.Harrison’s MS,c1815,Cumbria
O:England
A:Temple Sowerby,Cumbria
Z:vmp.Simon Wilson. Review PJH, 2008.
M:6/8
L:1/8
Q:3/8=104
K:D
e|d2a afa|afb a2d|d2a agf|efe {g}f2e|!
d2a afa|afb a2f|g/f/g/a/b agf|e>fe {f}f2:|!
|:e|d>ed dAd|dAd {g}f2e|d>ed dAF|E>FE {g}f2e|!
d>ed dAF|ABc dAF|GAB AGF|EFE f2:|

